images/partners/partner-5.svg

<svg width="72" height="19" viewBox="0 0 72 19" fill="none" xmlns="http://www.w3.org/2000/svg">
<path d="M8.3015 3.57264V1.28906H1.1015V16.9786H8.3015V14.695C6.82658 14.695 5.41205 14.1091 4.36914 13.0662C3.32622 12.0232 2.74031 10.6088 2.74031 9.13384C2.74031 7.65892 3.32622 6.24439 4.36914 5.20148C5.41205 4.15856 6.82658 3.57264 8.3015 3.57264Z" fill="#D1D1D1"/>
<path d="M8.30151 3.57227V14.6947C9.77644 14.6947 11.191 14.1087 12.2339 13.0658C13.2768 12.0229 13.8627 10.6084 13.8627 9.13346C13.8627 7.65854 13.2768 6.24401 12.2339 5.2011C11.191 4.15818 9.77644 3.57227 8.30151 3.57227Z" fill="#D1D1D1"/>
<path d="M17.9033 4.9707H19.5152V12.7349H17.9033V4.9707Z" fill="#D1D1D1"/>
<path d="M20.4179 10.0747C20.4179 9.51615 20.5838 8.97013 20.8945 8.50589C21.2051 8.04166 21.6466 7.6801 22.1631 7.46705C22.6795 7.25406 23.2475 7.19915 23.7951 7.3093C24.3427 7.41945 24.8453 7.68971 25.2392 8.08582C25.633 8.48198 25.9004 8.98609 26.0075 9.53437C26.1145 10.0826 26.0563 10.6503 25.8403 11.1655C25.6243 11.6806 25.2603 12.1201 24.7943 12.4281C24.3283 12.7361 23.7813 12.8988 23.2227 12.8956C22.8522 12.8985 22.4849 12.8275 22.1422 12.6865C21.7996 12.5455 21.4885 12.3376 21.2272 12.0749C20.966 11.8121 20.7599 11.4999 20.6209 11.1564C20.4819 10.813 20.4129 10.4452 20.4179 10.0747ZM24.4585 10.0747C24.4522 9.83392 24.375 9.60029 24.2365 9.40315C24.0981 9.20596 23.9047 9.05395 23.6803 8.96616C23.456 8.87836 23.2108 8.85864 22.9753 8.90952C22.7398 8.96035 22.5246 9.07948 22.3564 9.25206C22.1883 9.42459 22.0748 9.64285 22.0301 9.87959C21.9854 10.1163 22.0114 10.361 22.105 10.5829C22.1986 10.8049 22.3556 10.9944 22.5563 11.1276C22.757 11.2609 22.9925 11.3319 23.2334 11.3321C23.3975 11.3353 23.5604 11.3046 23.712 11.2419C23.8637 11.1794 24.0007 11.0861 24.1147 10.9681C24.2287 10.8501 24.317 10.7098 24.3744 10.5562C24.4317 10.4024 24.4567 10.2386 24.4478 10.0747H24.4585Z" fill="#D1D1D1"/>
<path d="M32.4054 7.41525V12.4714C32.4054 14.2552 31.0084 15.0129 29.5953 15.0129C29.0968 15.0537 28.5968 14.9547 28.1516 14.7269C27.7064 14.4991 27.3336 14.1515 27.0752 13.7233L28.4347 12.9388C28.5448 13.161 28.72 13.3442 28.937 13.4642C29.154 13.5841 29.4023 13.6352 29.649 13.6105C29.8061 13.6298 29.9656 13.6142 30.116 13.5648C30.2665 13.5153 30.4041 13.4333 30.5191 13.3244C30.6341 13.2155 30.7236 13.0827 30.7813 12.9352C30.8389 12.7877 30.8633 12.6293 30.8526 12.4714V11.9824C30.665 12.2099 30.427 12.3904 30.1574 12.5098C29.8879 12.6292 29.5942 12.6841 29.2997 12.6702C28.5872 12.6702 27.9039 12.3871 27.4001 11.8833C26.8962 11.3795 26.6132 10.6961 26.6132 9.9836C26.6132 9.27107 26.8962 8.58777 27.4001 8.08393C27.9039 7.58009 28.5872 7.29704 29.2997 7.29704C29.5942 7.28312 29.8879 7.33803 30.1574 7.45742C30.427 7.57682 30.665 7.75735 30.8526 7.9848V7.44748L32.4054 7.41525ZM30.8526 9.96748C30.8633 9.71043 30.7968 9.45602 30.6618 9.23701C30.5268 9.018 30.3294 8.84439 30.0948 8.73849C29.8604 8.63258 29.5996 8.59927 29.346 8.64279C29.0924 8.68631 28.8576 8.80468 28.6719 8.9827C28.4861 9.16071 28.3579 9.39025 28.3036 9.64176C28.2493 9.89328 28.2715 10.1552 28.3673 10.394C28.4632 10.6328 28.6282 10.8374 28.8413 10.9817C29.0544 11.1259 29.3057 11.2031 29.563 11.2033C29.7309 11.2154 29.8995 11.1921 30.0578 11.1351C30.2161 11.0779 30.3608 10.9883 30.4822 10.8718C30.6038 10.7553 30.6995 10.6147 30.7633 10.4589C30.8271 10.3031 30.8575 10.1357 30.8526 9.96748Z" fill="#D1D1D1"/>
<path d="M33.3134 10.0748C33.3134 9.51665 33.479 8.97106 33.7892 8.50704C34.0994 8.04302 34.5403 7.68146 35.056 7.46814C35.5718 7.25478 36.1393 7.19922 36.6866 7.30851C37.234 7.4178 37.7366 7.68699 38.1309 8.08202C38.5252 8.47711 38.7934 8.98025 38.9016 9.52777C39.0099 10.0753 38.9533 10.6427 38.7389 11.158C38.5246 11.6734 38.1622 12.1136 37.6976 12.4229C37.233 12.7323 36.6871 12.8968 36.1289 12.8957C35.7578 12.8993 35.3895 12.8288 35.046 12.6882C34.7024 12.5476 34.3904 12.3399 34.1281 12.0772C33.8659 11.8144 33.6588 11.502 33.5188 11.1581C33.379 10.8143 33.3091 10.446 33.3134 10.0748ZM37.354 10.0748C37.3477 9.83377 37.2703 9.59993 37.1317 9.40263C36.9931 9.20539 36.7992 9.05338 36.5746 8.96574C36.3499 8.87811 36.1044 8.85871 35.8688 8.91002C35.6332 8.96128 35.418 9.081 35.2501 9.25407C35.0821 9.42713 34.969 9.64593 34.925 9.88299C34.8809 10.1201 34.9077 10.3649 35.0021 10.5867C35.0965 10.8086 35.2543 10.9977 35.4557 11.1303C35.6571 11.2629 35.8932 11.3331 36.1343 11.3321C36.2984 11.3353 36.4613 11.3047 36.6129 11.242C36.7645 11.1794 36.9016 11.0862 37.0156 10.9682C37.1295 10.8502 37.2179 10.7099 37.2752 10.5562C37.3326 10.4025 37.3576 10.2386 37.3486 10.0748H37.354Z" fill="#D1D1D1"/>
<path d="M39.6913 5.99158C39.6913 5.80244 39.7474 5.6175 39.8525 5.46023C39.9576 5.30293 40.107 5.18035 40.2817 5.10796C40.4565 5.03557 40.6488 5.01663 40.8344 5.05353C41.0199 5.09044 41.1903 5.18153 41.3241 5.31529C41.4578 5.44905 41.5489 5.61949 41.5858 5.80497C41.6227 5.9905 41.6038 6.1828 41.5314 6.35759C41.459 6.53233 41.3364 6.6817 41.1791 6.7868C41.0218 6.8919 40.837 6.94799 40.6478 6.94799C40.395 6.9452 40.1533 6.84354 39.9746 6.66478C39.7958 6.48601 39.6941 6.24438 39.6913 5.99158ZM39.8472 7.41546H41.4591V12.7349H39.8472V7.41546Z" fill="#D1D1D1"/>
<path d="M48.3582 10.0753C48.3763 10.4291 48.3242 10.7829 48.205 11.1165C48.0858 11.4501 47.9018 11.7568 47.6636 12.0189C47.4253 12.2811 47.1377 12.4936 46.817 12.6441C46.4964 12.7947 46.1491 12.8803 45.7952 12.8962C45.4949 12.9162 45.194 12.8681 44.9149 12.7555C44.6358 12.6429 44.3857 12.4688 44.1833 12.246V14.8735H42.5714V7.4156H44.1833V7.9153C44.386 7.69323 44.6362 7.51989 44.9154 7.40823C45.1945 7.29653 45.4953 7.24946 45.7952 7.27052C46.1477 7.28637 46.4936 7.37154 46.8131 7.52107C47.1327 7.67061 47.4196 7.88166 47.6576 8.1421C47.8956 8.40253 48.08 8.7073 48.2002 9.03903C48.3204 9.37072 48.3741 9.72282 48.3582 10.0753ZM46.7463 10.0753C46.7399 9.82572 46.66 9.5836 46.5167 9.37926C46.3733 9.17492 46.1728 9.01738 45.9403 8.92652C45.7078 8.83561 45.4537 8.81541 45.2097 8.86833C44.9657 8.92126 44.7428 9.04505 44.5689 9.22414C44.395 9.40323 44.2778 9.62965 44.2321 9.87509C44.1863 10.1205 44.214 10.3739 44.3117 10.6037C44.4093 10.8334 44.5726 11.0292 44.7811 11.1665C44.9896 11.3039 45.234 11.3766 45.4836 11.3756C45.6546 11.3829 45.8252 11.3539 45.9841 11.2906C46.1432 11.2273 46.287 11.1311 46.4063 11.0083C46.5255 10.8856 46.6174 10.7389 46.676 10.5782C46.7346 10.4174 46.7585 10.246 46.7463 10.0753Z" fill="#D1D1D1"/>
<path d="M53.2639 11.1386C53.2639 12.3636 52.1892 12.8848 51.0501 12.8848C50.5855 12.9266 50.1191 12.8282 49.711 12.6021C49.303 12.3761 48.9721 12.0328 48.7612 11.6168L50.1474 10.8323C50.2024 11.024 50.3214 11.1911 50.4848 11.3055C50.6481 11.42 50.8458 11.4748 51.0448 11.461C51.4262 11.461 51.6197 11.3428 51.6197 11.1278C51.6197 10.5422 49.003 10.8538 49.003 9.01081C49.003 7.85022 49.9809 7.26992 51.0877 7.26992C51.5085 7.25106 51.9265 7.34654 52.2973 7.54615C52.6681 7.74576 52.978 8.04209 53.194 8.40365L51.8077 9.13439C51.7465 8.99577 51.6464 8.87788 51.5196 8.79492C51.3928 8.71196 51.2446 8.66752 51.0931 8.66693C50.8137 8.66693 50.6471 8.77439 50.6471 8.96245C50.6471 9.57499 53.2639 9.17201 53.2639 11.1386Z" fill="#D1D1D1"/>
<path d="M59.1045 7.41406V12.7335H57.4925V12.2338C57.3093 12.455 57.0767 12.63 56.8139 12.7448C56.5506 12.8596 56.2642 12.9109 55.9773 12.8947C54.9027 12.8947 53.9839 12.1263 53.9839 10.6917V7.41406H55.5958V10.4499C55.5829 10.5768 55.598 10.7049 55.6399 10.8255C55.6818 10.946 55.749 11.0561 55.8371 11.1481C55.9257 11.24 56.0332 11.3117 56.1519 11.3582C56.2707 11.4046 56.398 11.4247 56.5254 11.417C57.1057 11.417 57.514 11.0732 57.514 10.3424V7.41406H59.1045Z" fill="#D1D1D1"/>
<path d="M68.2388 9.46675V12.7336H66.6269V9.60645C66.6269 9.06914 66.3744 8.73601 65.8639 8.73601C65.3535 8.73601 65.0311 9.10675 65.0311 9.73541V12.7336H63.4191V9.60645C63.4191 9.06914 63.1666 8.73601 62.6561 8.73601C62.1457 8.73601 61.8233 9.10675 61.8233 9.73541V12.7336H60.2114V7.41422H61.8233V7.90317C61.9904 7.68717 62.208 7.51609 62.4579 7.4054C62.7072 7.29472 62.9807 7.24786 63.2526 7.26914C63.525 7.2549 63.7969 7.31186 64.0408 7.43431C64.2847 7.55676 64.4927 7.74058 64.6442 7.96765C64.8215 7.73037 65.0558 7.54188 65.3255 7.41975C65.5947 7.29756 65.8913 7.24577 66.1863 7.26914C67.4436 7.26914 68.2388 8.13959 68.2388 9.46675Z" fill="#D1D1D1"/>
<path d="M69.5929 7.38176C70.2457 7.38176 70.7749 6.8525 70.7749 6.19967C70.7749 5.54683 70.2457 5.01758 69.5929 5.01758C68.94 5.01758 68.4108 5.54683 68.4108 6.19967C68.4108 6.8525 68.94 7.38176 69.5929 7.38176Z" fill="#D1D1D1"/>
</svg>

<svg xmlns="http://www.w3.org/2000/svg" width="72" height="19" fill="none" viewBox="0 0 72 19"><path fill="#d1d1d1" d="M8.302 3.573V1.289h-7.2v15.69h7.2v-2.284a5.561 5.561 0 1 1 0-11.122M8.302 3.572v11.123a5.561 5.561 0 0 0 0-11.123M17.903 4.97h1.612v7.765h-1.612zM20.418 10.075a2.82 2.82 0 1 1 2.805 2.82 2.78 2.78 0 0 1-2.805-2.82m4.04 0a1.224 1.224 0 1 0-1.225 1.257 1.19 1.19 0 0 0 1.215-1.257z"/><path fill="#d1d1d1" d="M32.405 7.415v5.056c0 1.784-1.397 2.542-2.81 2.542a2.69 2.69 0 0 1-2.52-1.29l1.36-.784a1.22 1.22 0 0 0 1.214.672 1.076 1.076 0 0 0 1.204-1.14v-.489a1.9 1.9 0 0 1-1.553.688 2.686 2.686 0 0 1 0-5.373 1.9 1.9 0 0 1 1.553.688v-.538zm-1.552 2.552a1.29 1.29 0 1 0-1.29 1.236 1.205 1.205 0 0 0 1.29-1.236M33.313 10.075a2.82 2.82 0 1 1 2.816 2.82 2.79 2.79 0 0 1-2.816-2.82m4.041 0a1.225 1.225 0 1 0-1.22 1.257 1.19 1.19 0 0 0 1.215-1.257zM39.691 5.992a.956.956 0 1 1 .957.956.967.967 0 0 1-.957-.956m.156 1.423h1.612v5.32h-1.612zM48.358 10.075a2.686 2.686 0 0 1-2.563 2.821 2 2 0 0 1-1.612-.65v2.627h-1.612V7.417h1.612v.5a2 2 0 0 1 1.612-.645 2.686 2.686 0 0 1 2.563 2.804m-1.612 0a1.269 1.269 0 1 0-1.262 1.3 1.213 1.213 0 0 0 1.262-1.3M53.264 11.139c0 1.225-1.075 1.746-2.214 1.746a2.33 2.33 0 0 1-2.289-1.268l1.386-.785a.87.87 0 0 0 .898.629c.381 0 .575-.118.575-.333 0-.586-2.617-.274-2.617-2.117 0-1.16.978-1.741 2.085-1.741a2.33 2.33 0 0 1 2.106 1.134l-1.386.73a.78.78 0 0 0-.715-.467c-.28 0-.446.107-.446.295 0 .613 2.617.21 2.617 2.177M59.105 7.414v5.32h-1.612v-.5a1.84 1.84 0 0 1-1.516.66c-1.074 0-1.993-.768-1.993-2.202V7.414h1.612v3.036a.88.88 0 0 0 .241.698.89.89 0 0 0 .688.269c.58 0 .989-.344.989-1.075V7.414zM68.239 9.467v3.267h-1.612V9.606c0-.537-.253-.87-.763-.87s-.833.37-.833 1v2.998H63.42V9.606c0-.537-.252-.87-.763-.87-.51 0-.833.37-.833 1v2.998h-1.612v-5.32h1.612v.49a1.64 1.64 0 0 1 1.43-.635 1.57 1.57 0 0 1 1.391.699 1.75 1.75 0 0 1 1.542-.699c1.258 0 2.053.87 2.053 2.198M69.593 7.382a1.182 1.182 0 1 0 0-2.364 1.182 1.182 0 0 0 0 2.364"/></svg>
